img/svg/editors/phone.svg

<svg width="29" height="29" viewBox="0 0 29 29" fill="none" xmlns="http://www.w3.org/2000/svg">
<g clip-path="url(#clip0_12203_5723)">
<path d="M9.25 1H19.75C20.4463 1 21.1175 1.24218 21.6514 1.67969L21.8711 1.87891C22.4337 2.44152 22.75 3.20435 22.75 4V25C22.75 25.6963 22.5078 26.3675 22.0703 26.9014L21.8711 27.1211C21.3085 27.6837 20.5456 28 19.75 28H9.25C8.55372 28 7.8825 27.7578 7.34863 27.3203L7.12891 27.1211C6.5663 26.5585 6.25 25.7956 6.25 25V4L6.26465 3.70312C6.32316 3.11451 6.55475 2.55615 6.92969 2.09863L7.12891 1.87891C7.6211 1.38671 8.26649 1.08291 8.95312 1.01465L9.25 1ZM9.25 1.75C8.72785 1.75 8.2246 1.93171 7.82422 2.25977L7.65918 2.40918C7.23722 2.83114 7 3.40326 7 4V25C7 25.5967 7.23722 26.1689 7.65918 26.5908C8.08114 27.0128 8.65326 27.25 9.25 27.25H19.75C20.2721 27.25 20.7754 27.0683 21.1758 26.7402L21.3408 26.5908C21.7628 26.1689 22 25.5967 22 25V4C22 3.47785 21.8183 2.9746 21.4902 2.57422L21.3408 2.40918C20.9189 1.98722 20.3467 1.75 19.75 1.75H9.25ZM14.5 22C14.7901 22 15.0696 22.101 15.292 22.2832L15.3838 22.3662C15.6182 22.6006 15.75 22.9185 15.75 23.25C15.75 23.5401 15.649 23.8196 15.4668 24.042L15.3838 24.1338C15.1494 24.3682 14.8315 24.5 14.5 24.5C14.2099 24.5 13.9304 24.399 13.708 24.2168L13.6162 24.1338C13.3818 23.8994 13.25 23.5815 13.25 23.25C13.25 22.9599 13.351 22.6804 13.5332 22.458L13.6162 22.3662C13.8506 22.1318 14.1685 22 14.5 22Z" fill="#030303" stroke="#FBFBFB"/>
</g>
<defs>
<clipPath id="clip0_12203_5723">
<rect width="28" height="28" fill="white" transform="translate(0.5 0.5)"/>
</clipPath>
</defs>
</svg>

<svg width="29" height="29" fill="none" xmlns="http://www.w3.org/2000/svg"><g clip-path="url(#clip0_12203_5723)"><path d="M9.25 1h10.5a3 3 0 011.901.68l.22.199A3 3 0 0122.75 4v21a3 3 0 01-.68 1.901l-.199.22A3 3 0 0119.75 28H9.25a3 3 0 01-1.901-.68l-.22-.199A3 3 0 016.25 25V4l.015-.297A3 3 0 016.93 2.1l.199-.22a3 3 0 011.824-.864L9.25 1zm0 .75a2.25 2.25 0 00-1.426.51l-.165.15A2.25 2.25 0 007 4v21a2.25 2.25 0 002.25 2.25h10.5a2.25 2.25 0 001.426-.51l.165-.15A2.25 2.25 0 0022 25V4a2.25 2.25 0 00-.51-1.426l-.15-.165a2.25 2.25 0 00-1.59-.659H9.25zM14.5 22c.29 0 .57.101.792.283l.092.083a1.25 1.25 0 01.083 1.676l-.083.092a1.25 1.25 0 01-1.676.083l-.092-.083a1.25 1.25 0 01-.083-1.676l.083-.092A1.25 1.25 0 0114.5 22z" fill="#030303" stroke="#FBFBFB"/></g><defs><clipPath id="clip0_12203_5723"><path fill="#fff" transform="translate(.5 .5)" d="M0 0h28v28H0z"/></clipPath></defs></svg>
